static/img/kroki/325430e6228d6fa1141e82e11d60c271.svg

<?xml version="1.0" encoding="us-ascii" standalone="no"?><svg xmlns="http://www.w3.org/2000/svg" xmlns:xlink="http://www.w3.org/1999/xlink" contentStyleType="text/css" height="374px" preserveAspectRatio="none" style="width:274px;height:374px;" version="1.1" viewBox="0 0 274 374" width="274px" zoomAndPan="magnify"><defs/><g><!--class azure_monitor_log_profile--><g id="elem_azure_monitor_log_profile"><rect codeLine="23" fill="#3D176E" height="39.7891" id="azure_monitor_log_profile" rx="2.5" ry="2.5" style="stroke:#000D19;stroke-width:0.5;" width="260" x="7" y="328.58"/><ellipse cx="22" cy="348.4745" fill="#ADD1B2" rx="11" ry="11" style="stroke:#181818;stroke-width:1.0;"/><path d="M24.9688,354.1152 Q24.3906,354.412 23.75,354.5527 Q23.1094,354.7089 22.4063,354.7089 Q19.9063,354.7089 18.5781,353.0683 Q17.2656,351.412 17.2656,348.287 Q17.2656,345.162 18.5781,343.5058 Q19.9063,341.8495 22.4063,341.8495 Q23.1094,341.8495 23.75,342.0058 Q24.4063,342.162 24.9688,342.4589 L24.9688,345.1777 Q24.3438,344.5995 23.75,344.3339 Q23.1563,344.0527 22.5313,344.0527 Q21.1875,344.0527 20.5,345.1308 Q19.8125,346.1933 19.8125,348.287 Q19.8125,350.3808 20.5,351.4589 Q21.1875,352.5214 22.5313,352.5214 Q23.1563,352.5214 23.75,352.2558 Q24.3438,351.9745 24.9688,351.3964 L24.9688,354.1152 Z " fill="#000000"/><text fill="#D9B8FF" font-family="Helvetica" font-size="17" lengthAdjust="spacing" textLength="218" x="41" y="354.3598">azure_monitor_log_profile</text></g><!--class microsoft_resource--><g id="elem_microsoft_resource"><rect codeLine="26" fill="#3D176E" height="39.7891" id="microsoft_resource" rx="2.5" ry="2.5" style="stroke:#000D19;stroke-width:0.5;" width="200" x="37" y="167.79"/><ellipse cx="52" cy="187.6845" fill="#ADD1B2" rx="11" ry="11" style="stroke:#181818;stroke-width:1.0;"/><path d="M54.9688,193.3252 Q54.3906,193.622 53.75,193.7627 Q53.1094,193.9189 52.4063,193.9189 Q49.9063,193.9189 48.5781,192.2783 Q47.2656,190.622 47.2656,187.497 Q47.2656,184.372 48.5781,182.7158 Q49.9063,181.0595 52.4063,181.0595 Q53.1094,181.0595 53.75,181.2158 Q54.4063,181.372 54.9688,181.6689 L54.9688,184.3877 Q54.3438,183.8095 53.75,183.5439 Q53.1563,183.2627 52.5313,183.2627 Q51.1875,183.2627 50.5,184.3408 Q49.8125,185.4033 49.8125,187.497 Q49.8125,189.5908 50.5,190.6689 Q51.1875,191.7314 52.5313,191.7314 Q53.1563,191.7314 53.75,191.4658 Q54.3438,191.1845 54.9688,190.6064 L54.9688,193.3252 Z " fill="#000000"/><text fill="#D9B8FF" font-family="Helvetica" font-size="17" lengthAdjust="spacing" textLength="158" x="71" y="193.5698">microsoft_resource</text></g><!--class resource--><g id="elem_resource"><rect codeLine="29" fill="#3D176E" height="39.7891" id="resource" rx="2.5" ry="2.5" style="stroke:#000D19;stroke-width:0.5;" width="113" x="80.5" y="7"/><ellipse cx="95.5" cy="26.8945" fill="#ADD1B2" rx="11" ry="11" style="stroke:#181818;stroke-width:1.0;"/><path d="M98.4688,32.5352 Q97.8906,32.832 97.25,32.9727 Q96.6094,33.1289 95.9063,33.1289 Q93.4063,33.1289 92.0781,31.4883 Q90.7656,29.832 90.7656,26.707 Q90.7656,23.582 92.0781,21.9258 Q93.4063,20.2695 95.9063,20.2695 Q96.6094,20.2695 97.25,20.4258 Q97.9063,20.582 98.4688,20.8789 L98.4688,23.5977 Q97.8438,23.0195 97.25,22.7539 Q96.6563,22.4727 96.0313,22.4727 Q94.6875,22.4727 94,23.5508 Q93.3125,24.6133 93.3125,26.707 Q93.3125,28.8008 94,29.8789 Q94.6875,30.9414 96.0313,30.9414 Q96.6563,30.9414 97.25,30.6758 Q97.8438,30.3945 98.4688,29.8164 L98.4688,32.5352 Z " fill="#000000"/><text fill="#D9B8FF" font-family="Helvetica" font-size="17" lengthAdjust="spacing" textLength="71" x="114.5" y="32.7798">resource</text></g><!--reverse link microsoft_resource to azure_monitor_log_profile--><g id="link_microsoft_resource_azure_monitor_log_profile"><path codeLine="32" d="M137,225.84 C137,256.36 137,297.69 137,328.25 " fill="none" id="microsoft_resource-backto-azure_monitor_log_profile" style="stroke:#FFAF37;stroke-width:2.0;"/><polygon fill="none" points="137,207.84,131,225.84,143,225.84,137,207.84" style="stroke:#FFAF37;stroke-width:2.0;"/></g><!--reverse link resource to microsoft_resource--><g id="link_resource_microsoft_resource"><path codeLine="33" d="M137,65.05 C137,95.57 137,136.9 137,167.46 " fill="none" id="resource-backto-microsoft_resource" style="stroke:#FFAF37;stroke-width:2.0;"/><polygon fill="none" points="137,47.05,131,65.05,143,65.05,137,47.05" style="stroke:#FFAF37;stroke-width:2.0;"/></g><!--SRC=[XT1DJyCm30RWUtz5f9qhjKpGJU8oAY6uJ8XnhxB6MQCsSUMuJ1lmts5ieApTnzL-PBzsPHG8i2rlX0Mx1FAHhurh9KahPaIuph514YEjfHvd_UOZEhuAvjA2U8Bc7TYKiY_UAbFM3hmNDq7hGPRrYh1pQZ-UIJh_qmB7WSeRwVsCcSooOmZ2gEboedLVzeUEnYhDxc30a1JGWIH9ej9fdrnTTV7kVx4mMn1f-BGvCWnY3bRygeifTo88EJZqhtysuujKohYLk0rgh_jCv82EwejAAbplj9QD3zTu1WBaJGlvu2gOJfJEJkBdSpWgTwyJSjiH51QTOQIYmLNH4chJWFY8egy3igOazAYv8F3OKNdKFQwTiFUVSHoVtnJru712z0q0]--></g></svg>

<svg xmlns="http://www.w3.org/2000/svg" width="274" height="374" viewBox="0 0 274 374"><rect width="260" height="39.789" x="7" y="328.58" fill="#3D176E" rx="2.5" ry="2.5" style="stroke:#000d19;stroke-width:.5"/><circle cx="22" cy="348.474" r="11" fill="#ADD1B2" style="stroke:#181818;stroke-width:1"/><path d="M24.969 354.115q-.578.297-1.219.438-.64.156-1.344.156-2.5 0-3.828-1.64-1.312-1.657-1.312-4.782t1.312-4.781q1.328-1.656 3.828-1.656.703 0 1.344.156.656.156 1.219.453v2.719q-.625-.579-1.219-.844-.594-.281-1.219-.281-1.343 0-2.031 1.078-.687 1.062-.687 3.156t.687 3.172q.688 1.062 2.031 1.062.625 0 1.219-.265.594-.281 1.219-.86z"/><text x="41" y="354.36" fill="#D9B8FF" font-family="Helvetica" font-size="17" textLength="218">azure_monitor_log_profile</text><rect width="200" height="39.789" x="37" y="167.79" fill="#3D176E" rx="2.5" ry="2.5" style="stroke:#000d19;stroke-width:.5"/><circle cx="52" cy="187.685" r="11" fill="#ADD1B2" style="stroke:#181818;stroke-width:1"/><path d="M54.969 193.325q-.578.297-1.219.438-.64.156-1.344.156-2.5 0-3.828-1.64-1.312-1.657-1.312-4.782t1.312-4.781q1.328-1.656 3.828-1.656.703 0 1.344.156.656.156 1.219.453v2.719q-.625-.578-1.219-.844-.594-.281-1.219-.281-1.343 0-2.031 1.078-.687 1.062-.687 3.156t.687 3.172q.688 1.062 2.031 1.062.625 0 1.219-.265.594-.281 1.219-.86z"/><text x="71" y="193.57" fill="#D9B8FF" font-family="Helvetica" font-size="17" textLength="158">microsoft_resource</text><rect width="113" height="39.789" x="80.5" y="7" fill="#3D176E" rx="2.5" ry="2.5" style="stroke:#000d19;stroke-width:.5"/><circle cx="95.5" cy="26.895" r="11" fill="#ADD1B2" style="stroke:#181818;stroke-width:1"/><path d="M98.469 32.535q-.578.297-1.219.438-.64.156-1.344.156-2.5 0-3.828-1.64-1.312-1.657-1.312-4.782t1.312-4.781q1.328-1.656 3.828-1.656.703 0 1.344.156.656.156 1.219.453v2.719q-.625-.578-1.219-.844-.594-.281-1.219-.281-1.344 0-2.031 1.078-.687 1.062-.687 3.156T94 29.879q.688 1.062 2.031 1.062.625 0 1.219-.265.594-.281 1.219-.86z"/><text x="114.5" y="32.78" fill="#D9B8FF" font-family="Helvetica" font-size="17" textLength="71">resource</text><path fill="none" d="M137 225.84v102.41m0-120.41-6 18h12zm0-142.79v102.41m0-120.41-6 18h12z" style="stroke:#ffaf37;stroke-width:2"/></svg>
